static/img/pages/getQuestdb/docker.svg

<svg
  fill="none"
  height="49"
  viewBox="0 0 68 48"
  xmlns="http://www.w3.org/2000/svg"
>
  <path
    d="M38.4803 22.2946H45.4016V16.0324H38.4803V22.2946ZM30.2406 22.2946H37.1619V16.0324H30.2406V22.2946ZM22.1657 22.2946H29.087V16.0324H22.1657V22.2946ZM14.0908 22.2946H20.8473V16.0324H14.0908V22.2946ZM5.85107 22.2946H12.7724V16.0324H5.85107V22.2946ZM14.0908 14.714H20.8473V8.45186H14.0908V14.714ZM22.1657 14.714H29.087V8.45186H22.1657V14.714ZM30.2406 14.714H37.1619V8.45186H30.2406V14.714ZM30.2406 7.13351H37.1619V0.871338H30.2406V7.13351ZM67.484 19.4931C67.484 19.4931 64.5177 16.6916 58.4204 17.6803C57.7612 12.9013 52.6526 10.0998 52.6526 10.0998C52.6526 10.0998 47.8735 15.8676 51.3342 22.2946C50.3455 22.7889 48.6975 23.4481 46.2256 23.4481H0.907245C0.0832751 26.5792 0.0832759 47.3433 22.8249 47.3433C39.1395 47.3433 51.3342 39.7627 57.102 25.92C65.6713 26.5792 67.484 19.4931 67.484 19.4931Z"
    fill="#F35183"
  />
</svg>

<svg fill="none" height="49" viewBox="0 0 68 48" xmlns="http://www.w3.org/2000/svg"><path d="M38.48 22.295h6.922v-6.263H38.48v6.263zm-8.24 0h6.922v-6.263H30.24v6.263zm-8.074 0h6.921v-6.263h-6.921v6.263zm-8.075 0h6.756v-6.263h-6.756v6.263zm-8.24 0h6.921v-6.263h-6.92v6.263zm8.24-7.581h6.756V8.452h-6.756v6.262zm8.075 0h6.921V8.452h-6.921v6.262zm8.075 0h6.92V8.452h-6.92v6.262zm0-7.58h6.92V.87h-6.92v6.263zm37.243 12.36s-2.966-2.802-9.064-1.814c-.659-4.779-5.767-7.58-5.767-7.58s-4.78 5.768-1.319 12.195c-.989.494-2.637 1.153-5.108 1.153H.907C.083 26.58.083 47.343 22.825 47.343c16.314 0 28.51-7.58 34.277-21.423 8.57.66 10.382-6.427 10.382-6.427z" fill="#F35183"/></svg>
